X:1
T:Adjuro vos - Antonelli
T:James Gibb editions
T:#
%%score [ 1 2 ] 3
L:1/8
Q:1/4=120
M:4/4
K:C
V:1 treble nm="Soprano" snm="S"
V:2 treble nm="Bass" snm="B"
V:3 bass nm="BC" snm="BC"
V:1
"^Abundio Antonelli\n(1575-1629)""^Adjuro vos""^Song of Songs 5: 8-12" A4 A8 ^G4 | A8 d4 d4- | %2
w: Ad- ju- ro|vos, ad- ju\-|
 d4 ^c4 d8 | A3 A A2 A2 B3 B B4 | z2 e4 BB c3 c c2 G2 | A2 A2 (c8 B4) | c8 z4 d4 | %7
w: * ro vos|Fi- li- ae Je- ru- sa- lem|si in- ve- ne- ri- tis di-|le- ctum me\- *|um, ut|
 d2 ^c2 d6 G2 G4 | A8 z4 A4- | A4 E4 z2 E2 E4- | E2 E2 E3 E D8 | z4 d8 B4 | z2 B2 B6 B2 B3 B | %13
w: nun- ci- e- tis e-|i qui\-|* a a- mo\-|* re lan- gue- o,|qui- a|a- mo- re lan- gue-|
 A16 || z16 | z16 | z16 | z16 | z16 | z16 | z16 | z16 || A4 c6 c2 d4 | B8 e3 e e2 B2 | c3 d d4 c8 | %25
w: o.|||||||||Di- le- ctus me-|us can- di- dus et|ru- bi- cun- dus,|
 d3 d d2 A2 B3 A A4 | G8 z2 B2 c4- | c4 B4 ^c2 d4 c2 | d16 || z16 | z4 (BABc d2) c2 c3 B | c8 z8 | %32
w: can- di- dus et ru- bi- cun-|dus e- le\-|* ctus ex mi- li-|bus.||Au\- * * * * rum op- ti-|mum|
 z4 A2 AA (B/c/d/B/ c/B/c/d/ e/d/c/d/ e/d/e/c/ | d2) c>B B4 A8 | z4 G2 E2 ^F4 G4 | %35
w: si- cut e- la\- * * * * * * * * * * * * * * *|* te pal- ma- rum|qua- si cor- vus|
 z4 d2 B2 (^c2 d4 c2) | d8 z8 | z8 z4 B4 | B2 B2 c4 B8 | z8 z2 B2 B2 c2- | cB A4 d2 d2 e3 d c2- | %41
w: qua- si cor\- * *|vus.|si-|cut co- lum- bae|su- per ri\-|* vu- los, su- per ri- vu- los|
 c2 B2 A4 G4 B4 | (dcdB c4) B4 (ABcB) ||[M:2/2] (^G2 A4 G2) ||[M:3/2][Q:1/4=180] A8 A4 | d6 d2 d4 | %46
w: * a- qua- rum quae|la\- * * * * ctae sunt * * *|lo\- * *|tae, et|re- si- dent|
 c4 B4 A4 | B8 B4 | c4 c4 B4 |[M:3/2][Q:1/4=180][Q:1/4=180][Q:1/4=180] c8 c4 | e4 d6 d2 | c12 | %52
w: jux- ta flu-|en- ta,|jux- ta flu-|en- ta|ple- nis- si-|ma,|
 z12 | z8 B4 | d6 d2 d4 | c4 B4 A4 | B8 B4 | e4 d6 d2 | c8 c4 | B8 B4 | A24 |] %61
w: |et|re- si- dent|jux- ta flu-|en- ta|ple- nis- si-|ma, ple-|nis- si-|ma.|
V:2
 z16 | z16 | z16 | z16 | z16 | z16 | z16 | z16 | z16 | z16 | z16 | z16 | z16 | z16 || A,6 F,2 E,8 | %15
w: ||||||||||||||Qua- lis est,|
 A,2 A,2 A,6 E,2 D,3 D, | G,4 G,6 C,2 G,,3 G,, | C,4 C,4 G,4 D,4 | A,,8 D,8 | %19
w: qua- lis est di- le- ctus|tu- us, di- le- ctus|tu- us ex di-|le- cto,|
 G,2 G,2 G,3 G, G,2 A,2 E,3 E, | E,2 F,2 C,3 C, C,4 D,4 | E,6 E,2 A,,8 || z16 | z16 | z16 | z16 | %26
w: O pul- cher- ri- ma mu- li- e-|rum, pul- cher- ri- ma mu-|li- e- rum?|||||
 z16 | z16 | z16 || (D,3 E, F,G,A,B, C2) B,2 A,4 | G,8 z8 | z2 (CB, A,G,F,E, F,2) G,2 E,4 | %32
w: |||Ca\- * * * * * * put e-|ius|co\- * * * * * * mae e-|
 D,8 z8 | z8 z2 (A,3 G,F,E, | F,4 C,4 z4 G,2 E,2 | ^F,4 G,4 A,2 F,2 A,4 | %36
w: ius|ni\- * * *|* grae qua- si|cor- vus, qua- si cor-|
 D,4 z2 G,3 G, G,2 (C3 B, | A,3 G, F,4) E,8 | z8 z4 E,4 | E,2 E,2 F,4 E,4 E,2 E,2 | %40
w: vus. O- cu- li e\- *|* * * ius,|si-|cut co- lum- bae su- per|
 F,3 E, D,4 G,2 G,2 A,3 G, | F,2 G,2 D,4 G,,8 | z4 E,4 G,F,G,E,) F,4 ||[M:2/2] (E,2 D,2 E,4) || %44
w: ri- vu- los, su- per ri- vu-|los a- qua- rum|quae la\- * * * ctae|lo\- * *|
[M:3/2] A,,12 | z12 | z8 D,4 | G,6 G,2 G,4 | F,4 E,4 D,4 |[M:3/2] C,8 C,4 | C4 G,6 G,2 | C,8 E,4 | %52
w: tae,||et|re- si\-dent *|jux- ta flu-|en- ta|ple- nis- si-|ma, et|
 A,6 A,2 A,4 | G,4 F,4 E,4 | D,8 D,4 | E,4 E,4 ^F,4 | G,8 G,4 | E,4 G,6 G,2 | C,8 A,,4 | E,8 E,4 | %60
w: re- si- dent|jux- ta flu-|en- ta,|jux- ta flu-|en- ta|ple- nis- si-|ma, ple-|nis- si-|
 A,,24 |] %61
w: ma.|
V:3
 x4- x4 D,4 E,4 | A,8 G,4 ^F,4 | x4- x4 D,8 | D,4 F,4 E,8 | E,4 ^G,4 A,4 C4 | F,4 E,4 x4- x4 | %6
w: ||4 *|||* 6 4|
 C,8 G,8 | G,2 A,2 x2- x2 G,4 E,4 | x4- x4 D,8 | A,,8 A,,4 E,4 | A,,2 G,,2 x2- x2 D,8 | D,8 G,8 | %12
w: |* * 7 * *|||* 6 4 *||
 x2- x2 B,,4 E,2 D,2 E,4 | A,,16 || A,6 F,2 E,8 | A,4 A,6 E,2 D,4 | G,4 G,6 C,2 G,,4 | %17
w: * 6 * * *|||||
 C,8 G,4 D,4 | x4- x4 D,8 | G,4 G,6 A,2 E,4- | E,2 F,2 C,8 D,4 | x4- x4 A,,8 || A,4 x4- x4 F,4 | %23
w: |4 *|||4 *|* 5 *|
 E,8 C,6 G,2 | A,2 E,2 G,4 C,8 | G,4 ^F,4 G,4 D,4 | G,,8 G,4 F,4 | E,4 G,4 x2- x4 x2 | D,16 || %29
w: |* 4 3 *|||6 * 3||
 D,8 C,2 G,2 A,4 | x6- xx G,2 A,2 E,2 G,2 | C,4 x2- x2 x2 G,2 E,4 | D,8 G,4 C,4 | %33
w: |* 3 * * *|||
 G,2 A,2 E,4 A,,4 F,,4- | F,,4 C,4 D,4 G,2 E,2 | ^F,4 x2- x2 A,2 F,2 A,4 | D,4 G,8 C4 | %37
w: * 4 3 * *||* * 3 * *||
 x2- x2 F,4 E,8 | E,4 A,,4 E,8- | x2 x2 F,4 E,6 E,2 | F,4 x2- x2 G,4 A,3 G, | F,2 G,2 D,4 G,,8- | %42
w: ||6 6 *|* 5 * * *|* 4 3 *|
 x2 x2 C,2 E,2 G,4 F,4 ||[M:2/2] E,2 D,2 x2- x2 ||[M:3/2] A,,8 A,,4 | G,,8 G,,4 | A,,4 B,,4 D,4 | %47
w: |* 6 4||||
 G,8 G,4 | F,4 E,4 D,4 |[M:3/2] C,8 C,4 | C,4 G,8 | C,8 C,4 | %52
w: |* 6 6||||
"^Notes: original keys: Ut 1st, Fa 4rt, Fa 4rth\neditorial accidentals above the staff" A,,8 A,4 | %53
w: * 6|
 G,4 F,4 E,4 | D,8 D,4 | x4- x4 ^F,4 | G,8 G,4 | E,4 G,8 | C,8 A,,4 | E,8 E,4 | A,,24 |] %61
w: 5 * *||6 *||||||

